X:212
T:Off She Goes
R:
M:6/8
K:D
F2 A G2 B | ABc d3 | F2 A G2 B | AFD E3 |
F2 A G2 B | ABc d3 | f2 d g2 f | edc d3 :|
M:9/8
f2 a f2 d e2 f |
M:6/8
g2 b g2 e | f2 a f2 d | ecB A3 |
M:9/8
f2 a f2 d e2 f |
M:6/8
g2 b g2 e | f2 a f2 d | e2 c d3 :|
